Origami/24x24/apps/xcos.svg

<svg width="24" height="24" version="1" xmlns="http://www.w3.org/2000/svg">
 <rect transform="scale(-1,1)" x="-22" y="4.5" width="20" height="16" rx="1" ry="1" style="opacity:.2"/>
 <rect transform="scale(-1,1)" x="-22" y="4" width="20" height="16" rx="1" ry="1" style="fill:#e74c3c"/>
 <circle cx="20" cy="15.5" r="1" style="opacity:.2"/>
 <circle cx="17" cy="15.5" r="1" style="opacity:.2"/>
 <circle cx="20" cy="15" r="1" style="fill:#ffffff"/>
 <circle cx="17" cy="15" r="1" style="fill:#ffffff"/>
 <rect x="4" y="7" width="10" height="10" rx=".5" ry=".5" style="fill:#3f3f3f"/>
 <circle cx="20" cy="18.5" r="1" style="opacity:.2"/>
 <circle cx="17" cy="18.5" r="1" style="opacity:.2"/>
 <circle cx="20" cy="18" r="1" style="fill:#3f3f3f"/>
 <circle cx="17" cy="18" r="1" style="fill:#ffffff"/>
 <circle cx="20" cy="12.5" r="1" style="opacity:.2"/>
 <circle cx="17" cy="12.5" r="1" style="opacity:.2"/>
 <circle cx="20" cy="12" r="1" style="fill:#ffffff"/>
 <circle cx="17" cy="12" r="1" style="fill:#ffffff"/>
 <path d="m5 11.5h1.5l1-2 1 5 1.5-6 1 3h2" style="fill:none;stroke-linejoin:round;stroke:#ffffff"/>
 <circle cx="18.5" cy="8" r="2.5" style="opacity:.2"/>
 <circle cx="18.5" cy="7.5" r="2.5" style="fill:#ffffff"/>
 <path d="m3 4c-0.554 0-1 0.446-1 1v0.5c0-0.554 0.446-1 1-1h18c0.554 0 1 0.446 1 1v-0.5c0-0.554-0.446-1-1-1h-18z" style="fill:#ffffff;opacity:.2"/>
</svg>

<svg xmlns="http://www.w3.org/2000/svg" width="24" height="24" version="1">
 <rect style="opacity:0.2" width="20" height="16" x="-22" y="4.5" rx="1" ry="1" transform="scale(-1,1)"/>
 <rect style="fill:#e74c3c" width="20" height="16" x="-22" y="4" rx="1" ry="1" transform="scale(-1,1)"/>
 <circle style="opacity:0.2" cx="20" cy="15.5" r="1"/>
 <circle style="opacity:0.2" cx="17" cy="15.5" r="1"/>
 <circle style="fill:#ffffff" cx="20" cy="15" r="1"/>
 <circle style="fill:#ffffff" cx="17" cy="15" r="1"/>
 <rect style="fill:#3f3f3f" width="10" height="10" x="4" y="7" rx=".5" ry=".5"/>
 <circle style="opacity:0.2" cx="20" cy="18.5" r="1"/>
 <circle style="opacity:0.2" cx="17" cy="18.5" r="1"/>
 <circle style="fill:#3f3f3f" cx="20" cy="18" r="1"/>
 <circle style="fill:#ffffff" cx="17" cy="18" r="1"/>
 <circle style="opacity:0.2" cx="20" cy="12.5" r="1"/>
 <circle style="opacity:0.2" cx="17" cy="12.5" r="1"/>
 <circle style="fill:#ffffff" cx="20" cy="12" r="1"/>
 <circle style="fill:#ffffff" cx="17" cy="12" r="1"/>
 <path style="fill:none;stroke:#ffffff;stroke-linejoin:round" d="m 5,11.5 h 1.5 l 1,-2 1,5 1.5,-6 1,3 h 2"/>
 <circle style="opacity:0.2;stroke:#000000;stroke-width:0;stroke-linecap:round;stroke-linejoin:round" cx="18.5" cy="8" r="2.5"/>
 <circle style="fill:#ffffff;stroke:#000000;stroke-width:0;stroke-linecap:round;stroke-linejoin:round" cx="18.5" cy="7.5" r="2.5"/>
 <path style="fill:#ffffff;opacity:0.2" d="M 3 4 C 2.446 4 2 4.446 2 5 L 2 5.5 C 2 4.946 2.446 4.5 3 4.5 L 21 4.5 C 21.554 4.5 22 4.946 22 5.5 L 22 5 C 22 4.446 21.554 4 21 4 L 3 4 z"/>
</svg>
